src/icons/outline/communication/message-send.svg

<svg width="24" height="24" viewBox="0 0 24 24" fill="none" xmlns="http://www.w3.org/2000/svg">
<g clip-path="url(#clip0_4549_537)">
<path d="M14.8248 23.0027C14.5997 23.0027 14.3745 22.972 14.1493 22.8902C13.4738 22.665 12.9519 22.1227 12.7574 21.4269L10.7821 13.2102L2.59411 11.2455C2.59411 11.2455 2.57364 11.2455 2.5634 11.2455C2.01072 11.092 1.55014 10.7339 1.2738 10.2325C0.997458 9.73109 0.925813 9.14783 1.07934 8.60551C1.2738 7.91992 1.78555 7.3776 2.46105 7.15248L21.0886 1.07434C21.4571 0.951552 21.8562 0.98225 22.2042 1.1562C22.5522 1.33016 22.8081 1.63713 22.9309 2.00551C23.023 2.30225 23.023 2.60923 22.9309 2.90597L16.8616 21.519C16.5648 22.4195 15.7153 22.9925 14.8248 22.9925V23.0027ZM2.96256 9.76179L11.5906 11.8288C11.867 11.9004 12.0921 12.1153 12.1535 12.3916L14.2415 21.0381C14.2926 21.212 14.4359 21.3655 14.6304 21.4269C14.9477 21.5395 15.2957 21.3655 15.398 21.0381L21.4264 2.57853L2.94209 8.60551C2.75787 8.6669 2.60434 8.82039 2.55317 9.01481C2.51223 9.1683 2.5327 9.33202 2.60434 9.47527C2.68622 9.61853 2.80904 9.71062 2.96256 9.76179Z" fill="#3C3B44"/>
</g>
<defs>
<clipPath id="clip0_4549_537">
<rect width="24" height="24" fill="white"/>
</clipPath>
</defs>
</svg>

<svg xmlns="http://www.w3.org/2000/svg" width="24" height="24" fill="none" viewBox="0 0 24 24"><g clip-path="url(#a)"><path fill="currentColor" d="M14.825 23.003c-.225 0-.45-.031-.676-.113a2.15 2.15 0 0 1-1.392-1.463l-1.975-8.217-8.188-1.965h-.03a2.1 2.1 0 0 1-1.29-1.012 2.15 2.15 0 0 1-.195-1.627 2.14 2.14 0 0 1 1.382-1.454L21.09 1.074a1.456 1.456 0 0 1 1.842 1.832l-6.07 18.613a2.16 2.16 0 0 1-2.036 1.474zM2.963 9.762l8.628 2.067a.77.77 0 0 1 .563.563l2.088 8.646a.59.59 0 0 0 .388.389.596.596 0 0 0 .768-.389l6.028-18.46L2.942 8.607a.6.6 0 0 0-.389.409.65.65 0 0 0 .051.46.62.62 0 0 0 .359.287"/></g><defs><clipPath id="a"><path fill="currentColor" d="M0 0h24v24H0z"/></clipPath></defs></svg>
